src/images/svg/check.svg

<svg width="54" height="53" viewBox="0 0 54 53" fill="none" xmlns="http://www.w3.org/2000/svg">
<path d="M53.1562 26.7212C53.1562 41.1669 41.4457 52.8774 27 52.8774C12.5543 52.8774 0.84375 41.1669 0.84375 26.7212C0.84375 12.2755 12.5543 0.564941 27 0.564941C41.4457 0.564941 53.1562 12.2755 53.1562 26.7212ZM23.9745 40.5707L43.3808 21.1645C44.0397 20.5055 44.0397 19.437 43.3808 18.778L40.9943 16.3916C40.3354 15.7325 39.2669 15.7325 38.6078 16.3916L22.7812 32.218L15.3922 24.829C14.7332 24.17 13.6647 24.17 13.0057 24.829L10.6192 27.2154C9.96026 27.8744 9.96026 28.9429 10.6192 29.6019L21.588 40.5706C22.2471 41.2297 23.3154 41.2297 23.9745 40.5707Z" fill="white" fill-opacity="0.6"/>
</svg>

<svg width="54" height="53" fill="none" xmlns="http://www.w3.org/2000/svg"><path d="M53.156 26.721c0 14.446-11.71 26.156-26.156 26.156-14.446 0-26.156-11.71-26.156-26.156C.844 12.275 12.554.565 27 .565c14.446 0 26.156 11.71 26.156 26.156zm-29.181 13.85L43.38 21.165a1.688 1.688 0 000-2.387l-2.387-2.386a1.687 1.687 0 00-2.386 0L22.78 32.218l-7.389-7.389a1.688 1.688 0 00-2.386 0l-2.387 2.386a1.688 1.688 0 000 2.387L21.588 40.57c.66.659 1.727.659 2.386 0z" fill="#fff" fill-opacity=".6"/></svg>
